pix_core/e/insert_edit_image.svg

<svg preserveAspectRatio="xMinYMid meet" viewBox="0 0 512 512" xmlns="http://www.w3.org/2000/svg"><path d="m448 80c8.8 0 16 7.2 16 16v319.8l-5-6.5-136-176c-4.5-5.9-11.6-9.3-19-9.3s-14.4 3.4-19 9.3l-83 107.4-30.5-42.7c-4.5-6.3-11.7-10-19.5-10s-15 3.7-19.5 10.1l-80 112-4.5 6.2v-.3-320c0-8.8 7.2-16 16-16zm-384-48c-35.3 0-64 28.7-64 64v320c0 35.3 28.7 64 64 64h384c35.3 0 64-28.7 64-64v-320c0-35.3-28.7-64-64-64zm80 192a48 48 0 1 0 0-96 48 48 0 1 0 0 96z" fill="#fff"/></svg>

<svg xmlns="http://www.w3.org/2000/svg" viewBox="0 0 512 512" preserveAspectRatio="xMinYMid meet"><path fill="#fff" d="M448 80c8.8 0 16 7.2 16 16V415.8l-5-6.5-136-176c-4.5-5.9-11.6-9.3-19-9.3s-14.4 3.4-19 9.3L202 340.7l-30.5-42.7C167 291.7 159.8 288 152 288s-15 3.7-19.5 10.1l-80 112L48 416.3l0-.3V96c0-8.8 7.2-16 16-16H448zM64 32C28.7 32 0 60.7 0 96V416c0 35.3 28.7 64 64 64H448c35.3 0 64-28.7 64-64V96c0-35.3-28.7-64-64-64H64zm80 192a48 48 0 1 0 0-96 48 48 0 1 0 0 96z"/></svg>
